Suru++-Ubuntu/apps/symbolic/vmplayer-symbolic.svg

<svg width="16" height="16" version="1.1" xmlns="http://www.w3.org/2000/svg">
 <path d="m9.183438 15.310419c-0.495338-0.252472-0.681147-0.712856-0.481112-1.191609 0.216189-0.517417 0.672813-0.667994 2.025748-0.667994 0.620606 0 1.128374-0.0378 1.128374-0.08353 0-0.04611-0.350664-0.434079-0.779259-0.862488l-0.779256-0.778958h-1.762711v-2.048428h0.407116c0.51312 0 0.6642441-0.151937 0.6642441-0.6684473v-0.4097007h2.1427279v1.784314l0.803524 0.803188 0.803524 0.803187v-1.159748c0-1.4117662 0.144302-1.8440308 0.692526-2.0745442 0.334186-0.1405984 0.4235-0.1405984 0.757667 0 0.629454 0.2645669 0.69253 0.5646614 0.69253 3.2935932 0 3.601172 0.153525 3.450104-3.505273 3.449839-2.1111767-1.13e-4 -2.490702-0.02646-2.81037-0.188598zm-4.268077-3.747023c-0.503853-0.220347-0.66559-0.69086-0.66559-1.9364407v-1.0276913h2.142724v0.4097007c0 0.5163591 0.151143 0.6684473 0.664244 0.6684473h0.407119v2.048428l-1.098145-0.0038c-0.707214-0.0025-1.223531-0.05894-1.450352-0.158342zm-3.749768-4.3124785c-0.599221-0.2619212-0.665593-0.589833-0.665593-3.2875842 0-2.7254929 0.06357-3.0291401 0.689087-3.2921574 0.542491-0.22828346 5.042895-0.22828346 5.585314-1.5118e-4 0.783129 0.32919682 0.806929 1.3113827 0.04123 1.7019213-0.283653 0.1447559-0.637406 0.1885984-1.521293 0.1885984-0.633449 7.56e-5 -1.151717 0.034016-1.151717 0.078614 0 0.043087 0.348321 0.4311685 0.774055 0.8624882l0.774058 0.7841765h1.773109v2.0484283h-0.407115c-0.513117 0-0.664245 0.151937-0.664245 0.6684472v0.409663h-2.14272v-1.7842771l-0.80352-0.8032252-0.803524-0.8031874v1.159748c0 1.4090079-0.144642 1.8441827-0.689087 2.0731087-0.441074 0.1855748-0.352176 0.1859527-0.788043-0.00378zm8.4409891-0.2471811c0-0.516359-0.1511051-0.6684472-0.6642441-0.6684472h-0.407116v-2.0484283h1.773113l0.774059-0.7841764c0.425729-0.4313197 0.774054-0.8194393 0.774054-0.8624882 0-0.043087-0.518271-0.078614-1.151716-0.078614-0.8838922-1.135e-4 -1.23766-0.044221-1.521294-0.1885986-0.765687-0.3905385-0.741891-1.3726488 0.04123-1.7018834 0.5424153-0.22790551 5.042824-0.22790551 5.585311 1.5118e-4 0.625538 0.26305514 0.689087 0.56662675 0.689087 3.2921196 0 2.7289701-0.06308 3.0289512-0.692527 3.2936315-0.334185 0.1405984-0.423496 0.1405984-0.757666 0-0.548232-0.2305512-0.692531-0.662778-0.692531-2.0745827v-1.159748l-0.803524 0.8032252-0.803519 0.8031874v1.7842771h-2.1427284z" style="fill:#808080"/>
</svg>

<svg xmlns="http://www.w3.org/2000/svg" width="16" height="16" version="1.1">
 <path style="fill:#808080" d="M 9.183438,15.310419 C 8.6881,15.057947 8.502291,14.597563 8.702326,14.11881 c 0.216189,-0.517417 0.672813,-0.667994 2.025748,-0.667994 0.620606,0 1.128374,-0.0378 1.128374,-0.08353 0,-0.04611 -0.350664,-0.434079 -0.779259,-0.862488 L 10.297933,11.72584 H 9.416578 8.535222 V 10.701626 9.677412 h 0.407116 c 0.51312,0 0.6642441,-0.151937 0.6642441,-0.6684473 V 8.599264 h 1.0713679 1.07136 v 0.8921574 0.8921566 l 0.803524,0.803188 0.803524,0.803187 v -1.159748 c 0,-1.4117662 0.144302,-1.8440308 0.692526,-2.0745442 0.334186,-0.1405984 0.4235,-0.1405984 0.757667,0 0.629454,0.2645669 0.69253,0.5646614 0.69253,3.2935932 0,3.601172 0.153525,3.450104 -3.505273,3.449839 -2.1111767,-1.13e-4 -2.490702,-0.02646 -2.81037,-0.188598 z M 4.915361,11.563396 C 4.411508,11.343049 4.249771,10.872536 4.249771,9.6269553 V 8.599264 h 1.071364 1.07136 v 0.4097007 c 0,0.5163591 0.151143,0.6684473 0.664244,0.6684473 h 0.407119 v 1.024214 1.024214 L 6.365713,11.72204 C 5.658499,11.71954 5.142182,11.6631 4.915361,11.563698 Z M 1.165593,7.2509175 C 0.566372,6.9889963 0.5,6.6610845 0.5,3.9633333 0.5,1.2378404 0.56357,0.93419319 1.189087,0.67117586 1.731578,0.4428924 6.231982,0.4428924 6.774401,0.67102468 7.55753,1.0002215 7.58133,1.9824074 6.815631,2.372946 6.531978,2.5177019 6.178225,2.5615444 5.294338,2.5615444 4.660889,2.56162 4.142621,2.5955604 4.142621,2.6401584 c 0,0.043087 0.348321,0.4311685 0.774055,0.8624882 L 5.690734,4.2868231 H 6.577287 7.463843 V 5.3110372 6.3352514 H 7.056728 c -0.513117,0 -0.664245,0.151937 -0.664245,0.6684472 v 0.409663 H 5.321127 4.249763 V 6.5212042 5.6290845 L 3.446243,4.8258593 2.642719,4.0226719 v 1.159748 c 0,1.4090079 -0.144642,1.8441827 -0.689087,2.0731087 C 1.512558,7.4411034 1.601456,7.4414813 1.165589,7.2517486 Z M 9.6065821,7.0037364 c 0,-0.516359 -0.1511051,-0.6684472 -0.6642441,-0.6684472 H 8.535222 V 5.311075 4.2868609 h 0.886556 0.886557 l 0.774059,-0.7841764 c 0.425729,-0.4313197 0.774054,-0.8194393 0.774054,-0.8624882 0,-0.043087 -0.518271,-0.078614 -1.151716,-0.078614 C 9.8208398,2.5614688 9.467072,2.5173613 9.183438,2.3729837 8.417751,1.9824452 8.441547,1.0003349 9.224668,0.67110027 c 0.5424153,-0.22790551 5.042824,-0.22790551 5.585311,1.5118e-4 0.625538,0.26305514 0.689087,0.56662675 0.689087,3.29211965 0,2.7289701 -0.06308,3.0289512 -0.692527,3.2936315 -0.334185,0.1405984 -0.423496,0.1405984 -0.757666,0 C 13.500641,7.0264514 13.356342,6.5942246 13.356342,5.1824199 V 4.0226719 L 12.552818,4.8258971 11.749299,5.6290845 V 6.5212419 7.4133616 H 10.677935 9.6065706 Z"/>
</svg>
